X:1
T:Hymn to St. Philip Neri
T:Oliver Hayes
T:Hymn to St. Philip Neri for brothers of the Little Oratory
C:Oliver Hayes
%%score { ( 1 2 ) | ( 3 4 ) }
L:1/8
Q:1/4=160
M:none
K:C
V:1 treble nm="MusicXML Part"
V:2 treble 
V:3 bass 
V:4 bass 
V:1
"^Ladywood CM" G4 | G4 G4 E4 G4 | A4 A4 G4 G4 | A4 c4 A4 A4 | G12 || G4 | c4 B4 A4 G4 | %7
w: Dear|Fa- ther Phi- lip|turn your gaze to|us who dwell on|earth,|plead|to Our Lord who|
 A4 F4 G4 G4 | F4 E4 D4 D4 | C12 |] %10
w: shared our state, that|we may prove our|worth.|
V:2
 E4 | D4 E4 E4 E4 | F4 E4 E4 E4 | F4 F4 F6 E2 | D12 || E4 | G4 G4 E4 E4 | C4 C4 D4 D4 | %8
 C4 C4 C4 B,4 | G,12 |] %10
V:3
 C4 | B,4 C4 C4 C4 | C4 C4 C4 C4 | C4 C4 D4 C4 | B,12 || %5
"^1. Dear Father Philip, turn your gaze\nto us who dwell on earth.\nPlead to Our Lord, who shared our state,\nthat we may prove our worth.\n\n2. God preordained that we should live\nin this time, here and now.\nGrant that our hearts be open to\nthe word he sends to sow.\n\n3. Let them not be stony and cold,\nand full of empty pride,\nbut burning with the fire of love\nwhere faith and hope abide.\n\n4. May we not seek the praise of men,\ndesiring to be shown\nas great and glorious in this life,\nbut love to be unknown.\n\n" C4 | %6
 E4 D4 C4 B,4 | %7
 A,4 A,4"^5. Grant that we seek no home on earth\nor vain hopes in this place,\nbut ready be at every hour\nto meet God face to face.\n\n6. To God’s great mercy we entrust\nour lost and sinful past,\nand to his blessed providence\nour future shall we cast.\n\n7. O Holy Father, grant that, of\nno glory shall we boast,\nsave God the Father, God the Son\nand God the Holy Ghost." B,4 B,4 | %8
 A,4 G,4 G,6 F,2 | E,12 |] %10
V:4
 C,4 | G,,4 C,2 D,2 E,4 C,4 | F,,2 G,,2 A,,2 B,,2 C,4 E,4 | F,2 G,2 A,4 F,4 F,4 | G,12 || C,2 D,2 | %6
 E,2 F,2 G,4 A,4 E,4 | F,2 G,2 A,4 G,4 G,,4 | A,,2 B,,2 C,4 G,,4 G,,4 | C,12 |] %10

